fs/check_20_regular.svg

<svg viewBox="0 0 20 20" fill="none" xmlns="http://www.w3.org/2000/svg" height="1em" width="1em">
  <path d="M18 7.12132V13C18 14.1046 17.1046 15 16 15H4C2.89543 15 2 14.1046 2 13V7C2 5.89543 2.89543 5 4 5H15.8787L14.8787 6H4C3.44772 6 3 6.44772 3 7V13C3 13.5523 3.44772 14 4 14H16C16.5523 14 17 13.5523 17 13V8.12132L18 7.12132ZM4 8.5C4 8.22386 4.22386 8 4.5 8H6.5C6.77614 8 7 8.22386 7 8.5C7 8.77614 6.77614 9 6.5 9H4.5C4.22386 9 4 8.77614 4 8.5ZM4 11.5C4 11.2239 4.22386 11 4.5 11H9C9.27614 11 9.5 11.2239 9.5 11.5C9.5 11.7761 9.27614 12 9 12H4.5C4.22386 12 4 11.7761 4 11.5ZM17.8536 5.14645C18.0488 5.34171 18.0488 5.65829 17.8536 5.85355L11.8536 11.8536C11.6583 12.0488 11.3417 12.0488 11.1464 11.8536C10.9512 11.6583 10.9512 11.3417 11.1464 11.1464L17.1464 5.14645C17.3417 4.95118 17.6583 4.95118 17.8536 5.14645Z" fill="#212121"/>
</svg>

<svg viewBox="0 0 20 20" fill="none" xmlns="http://www.w3.org/2000/svg" height="1em" width="1em">
  <path d="M18 7.121V13a2 2 0 0 1-2 2H4a2 2 0 0 1-2-2V7a2 2 0 0 1 2-2h11.879l-1 1H4a1 1 0 0 0-1 1v6a1 1 0 0 0 1 1h12a1 1 0 0 0 1-1V8.121l1-1ZM4 8.5a.5.5 0 0 1 .5-.5h2a.5.5 0 0 1 0 1h-2a.5.5 0 0 1-.5-.5Zm0 3a.5.5 0 0 1 .5-.5H9a.5.5 0 0 1 0 1H4.5a.5.5 0 0 1-.5-.5Zm13.854-6.354a.5.5 0 0 1 0 .708l-6 6a.5.5 0 0 1-.708-.708l6-6a.5.5 0 0 1 .708 0Z" fill="#212121"/>
</svg>
